X:45
T:a Jigg
O:england
R:Jig
M:6/8
A:Westmorland
N:P4 3/3
K:G
B2c d2g|faf g3|g2d def|g2d d2A|\
B2c d2g|faf g3|e2d c2B|A3c3:|
B2A G2A|B2c d2f|+e2g2+d def|g2d d2A|\
B2A G2A|B2c d2f|e2d c2B|A3c3:|


